X:1
T:Harvey’s Chant, CM 5 lines
T:Harvey’s Chant, CM 5 lines
T:William Batchelder Bradbury, 1853
T:Public Domain Courtesy of the Cyber Hymnal™
C:William Batchelder Bradbury, 1853
Z:Public Domain
Z:Courtesy of the Cyber Hymnal™
%%score ( 1 2 ) 3
L:1/8
Q:1/4=130
M:3/2
K:G
V:1 treble 
V:2 treble 
V:3 bass 
V:1
 [DG]4 | [DG]2 [DG]2 [DG]2 [DG]2 [DF]2 [DG]2 | [FA]8 [FA]4 | [FA]2 [FA]2 [FA]4 [FA]4 | %4
 [GB]8 [GB]4 | [GB]2 [GB]2 [GB]2 [GB]2 [FA]2 [GB]2 | [Gc]8 [FA]4 | [GB]2 [EA]2 [DG]4 [DF]4 | %8
 [DG]8 D4 | [CE]2 [CG]2 [B,D]4 [A,D]4 | [B,D]8 |] %11
V:2
 x4 | x12 | x12 | x12 | x12 | x12 | x12 | x12 | x8 D4 | x12 | x8 |] %11
V:3
 [G,B,]4 | [G,B,]2 [G,B,]2 [G,B,]2 [G,B,]2 [A,C]2 [G,B,]2 | [D,D]8 [D,D]4 | %3
 [D,D]2 [D,D]2 [D,D]4 [D,D]4 | [G,D]8 [G,D]4 | [G,D]2 [G,D]2 [G,D]2 [G,D]2 [D,D]2 [G,D]2 | %6
 [C,E]8 [D,D]4 | [G,D]2 [C,C]2 [D,B,]4 [D,A,]4 | [G,B,]8 [B,,G,]4 | %9
 [C,G,]2 [C,E,]2 [D,G,]4 [D,F,]4 | [G,,G,]8 |] %11

